src/svg/ue916-flow.svg

<!-- Generated by IcoMoon.io -->
<svg version="1.1" xmlns="http://www.w3.org/2000/svg" width="32" height="32" viewBox="0 0 32 32">
<path d="M25.065 19.995h-6.405l-8.005 8.005h-10.656v4h12.311l8.007-8.007h4.747v2.242l6.935-4.242-6.935-4.24z"></path>
<path d="M14.318 11.995h10.747v2.242l6.935-4.242-6.935-4.242v2.245h-9.088l-8-7.998h-7.977v4h6.322z"></path>
<path d="M18.665 19.259l6.4-3.259-6.4-3.257v1.257h-18.665v4h18.665z"></path>
</svg>

<svg xmlns="http://www.w3.org/2000/svg" width="32" height="32"><path d="M25.065 19.995H18.66L10.655 28H-.001v4H12.31l8.007-8.007h4.747v2.242l6.935-4.242-6.935-4.24zm-10.747-8h10.747v2.242L32 9.995l-6.935-4.242v2.245h-9.088L7.977 0H0v4h6.322z"/><path d="M18.665 19.259l6.4-3.259-6.4-3.257V14H0v4h18.665z"/></svg>
